epam-assets/icon-sources/18/internal-logo/report_portal.svg

<svg width="18" height="18" viewBox="0 0 18 18" fill="none" xmlns="http://www.w3.org/2000/svg">
<g id="18/internal-logo/report_portal">
<path id="icon" fill-rule="evenodd" clip-rule="evenodd" d="M12.5294 2.33012V6.411L7.94165 1.59137C9.48886 1.34199 11.0956 1.60791 12.5294 2.33012ZM8.11759 4.59723H7.49377H2.93619C3.8352 3.3294 5.32142 2.39399 6.79406 1.87661L9.44112 4.59723H8.11759ZM2.38191 5.47059H6.79412L1.63996 10.5802C1.54897 10.1005 1.5 9.60519 1.5 9.09816C1.5 7.78644 1.81963 6.55191 2.38191 5.47059ZM13.4118 9.28759L16.0968 6.52848C15.5934 5.01447 14.6456 3.71322 13.4118 2.78906V9.28759ZM11.5391 16.1703L8.85363 13.4118H15.1741C14.2756 14.6788 13.0106 15.6526 11.5391 16.1703ZM13.4118 10.4506L13.1539 10.7157L11.3888 12.5295H15.6181C16.1804 11.4481 16.5 10.2136 16.5 8.90188C16.5 8.39508 16.4511 7.9003 16.3602 7.42085L13.4118 10.4506ZM1.94118 11.3988L4.58824 8.67817V15.0264C3.3011 14.0981 2.45945 12.9571 1.94118 11.3988ZM7.38485 13.3259L7.125 13.059L5.47059 11.3595V15.6517C6.49599 16.1927 7.65761 16.5 8.88971 16.5C9.38394 16.5 9.86658 16.4494 10.3341 16.3557L7.38485 13.3259Z" fill="#6C6F80"/>
</g>
</svg>

<svg xmlns="http://www.w3.org/2000/svg" width="18" height="18" fill="none" viewBox="0 0 18 18">
  <path fill="#6C6F80" fill-rule="evenodd" d="M12.53 2.33v4.081l-4.588-4.82c1.547-.249 3.154.017 4.587.74ZM8.117 4.597H2.936c.9-1.268 2.385-2.203 3.858-2.72l2.647 2.72H8.118Zm-5.736.874h4.412L1.64 10.58a7.946 7.946 0 0 1-.14-1.483c0-1.312.32-2.546.882-3.627Zm11.03 3.817 2.685-2.76a7.712 7.712 0 0 0-2.685-3.739v6.499Zm-1.873 6.882-2.685-2.758h6.32a7.535 7.535 0 0 1-3.635 2.758Zm1.873-5.72-.258.266-1.765 1.814h4.23a7.843 7.843 0 0 0 .881-3.628c0-.507-.049-1.002-.14-1.481l-2.948 3.03Zm-11.47.949 2.646-2.72v6.347c-1.287-.928-2.129-2.069-2.647-3.627Zm5.443 1.927-.26-.267-1.654-1.7v4.293a7.302 7.302 0 0 0 4.863.704l-2.95-3.03Z" clip-rule="evenodd"/>
</svg>
